X: 508
T: Cuttin' at the Point
B: jims roots
M:C|
L:1/8
Q: 1/4=100
K:D
V:1 
|:e | "D"fAde f3e | fede feff | eeff gfed | "G"BA [G2B2] [G3B3]:|
|:A|"G"B2 [GB]B BcdB|"D"AG [F2A2] [F3A3] D | DEFG A4|"G"dBBA [GB] [G2B2]:|
% abcbook-tune_id 6298c2451572afb932645a15


% abcbook-boost 0
% abcbook-tablature 
% abcbook-transpose 
% abcbook-lastupdated 1654178373917
% abcbook-soundfonts 
% abcbook-repeats 1


